**kern	**kern	**dynam
*part1	*part1	*part1
*staff2	*staff1	*
*I"Piano	*	*
*clefF4	*clefG2	*
*k[f#]	*k[f#]	*
=1	=1	=1
*^	*^	*
*	*^	*	*	*
4rc	4ryy	[2CC\	4rFyy	4aa-X)	.
!	!	!	!LO:TX:a:B:t=rall.	!	!
.	.	.	(8qaan/	.	ff
(4an^^	[4G: [4c: [4e:	.	[4eee^^)	4rffyy	.
=	=	=	=	=	=
4a-X	2G] 2c] 2e]	4CC\]	2eee]	(4ee	>
4g)	.	4rCC	.	4gg)	.
*	*	*	*v	*v	*
=	=	=	=	=
!	!	!	!LO:TX:b:t=una corda	!
4rg	4rcyy	[2DD\	4r	] p
!	!	!	!LO:TX:b:i:t=dim.  e  rall.	!
.	.	.	(8qb/	.
[4g	(4e:	.	([4bb^^)	.
=	=	=	=	=
*	*	*	*^	*
2g]	4e-X	2DD\]	2bb]	4b)	.
.	4d)	.	.	4dd	.
*	*	*	*v	*v	*
=	=	=	=	=
4rA	4rddyy	[2DD\	4r	.
.	.	.	((8qcc/	.
[4f#	[4A: 4e:	.	[4ccc^^)	.
=	=	=	=	=
*	*	*	*^	*
2f#]	4A_ 4e-X	2DD\]	2ccc]	[4cc)	.
.	8A] 8d	.	.	8cc] 8dd	.
.	8r	.	.	8rdd	.
*v	*v	*v	*	*	*
*	*v	*v	*
=	=	=
[2GG [2D	[2b [2gg [2bb	ppp
=	=	=
4GG] 4D]	4b] 4gg] 4bb]	.
4r;	4r;	.
==	==	==
*-	*-	*-
!!!system-decoration: {(s1,s2)}
